!!!!SEGMENT: pl-kj--bj-muz-10220-iii-2_zelenski-wladyslaw--spiewak-w-obcej-stronie-op-3.krn
!!!cenid: 18xx:3668
!!!COM: Żeleński, Władysław
!!!COM-rismid: pe41024455
!!!CDT:
!!!CNT:
!!!OTL: Śpiewak w obcej stronie op. 3
!!!PDT:
!!!AGN:
!!!SMS-siglum: PL-Kj
!!!SMS-shelfmark: BJ Muz. 10220 III /2
!!!SMS-shelfwork: W
!!!SMS-variant:
!!!SMS-altvar:
!!!NIFC-rismid:
!!!URL-scan: https://polona.pl/item/spiewak-w-obcej-stronie-solo-na-bas-op-3,ODUxMDU3Mzk/2/#info:metadata
!!!ONB-nifc:
!!!key: c
**kern	**dynam	**kern	**dynam	**kern	**text	**dynam
*part2	*part2	*part2	*part2	*part1	*part1	*part1
*staff3	*	*staff2	*	*staff1	*staff1	*
*I"Fortepian.	*	*	*	*I"Śpiew.	*	*
*I'pf	*	*	*	*I'V	*	*
*ICklav	*	*	*	*ICvox	*	*
*Ipiano	*	*	*	*Ivox	*	*
*clefF4	*	*clefG2	*	*clefF4	*	*
*c:	*	*c:	*	*c:	*	*
*k[b-e-a-]	*	*k[b-e-a-]	*	*k[b-e-a-]	*	*
*M9/4	*	*M9/4	*	*M9/4	*	*
=1	=1	=1	=1	=1	=1	=1
!	!	!	!	!LO:TX:a:B:t=Andante appassionato. M.M. [half-dot]=66.	!	!
!	!	!LO:TX:t=P:problem: problem klamry łukowej	!	!	!	!
[1.CC [1.C	.	12g/L	pp	4%9r	.	.
!	!	!LO:TX:b:i:t=il basso ben marcato e legato	!	!	!	!
.	.	12e-/	.	.	.	.
.	.	12c/J	.	.	.	.
!	!	!LO:TX:t=P:problem: problem klamry łukowej	!	!	!	!
.	.	12g/L	.	.	.	.
.	.	12e-/	.	.	.	.
.	.	12c/J	.	.	.	.
!	!	!LO:TX:t=P:problem: problem klamry łukowej	!	!	!	!
.	.	12g/L	.	.	.	.
.	.	12e-/	.	.	.	.
.	.	12c/J	.	.	.	.
*	*	*Xtuplet	*	*	*	*
.	.	12g/L	.	.	.	.
.	.	12e-/	.	.	.	.
.	.	12c/J	.	.	.	.
.	.	12g/L	.	.	.	.
.	.	12e-/	.	.	.	.
.	.	12c/J	.	.	.	.
.	.	12g/L	.	.	.	.
.	.	12e-/	.	.	.	.
.	.	12c/J	.	.	.	.
2.CC/_ 2.C_	.	12g/L	.	.	.	.
.	.	12e-/	.	.	.	.
.	.	12c/J	.	.	.	.
.	.	12g/L	.	.	.	.
.	.	12e-/	.	.	.	.
.	.	12c/J	.	.	.	.
.	.	12g/L	.	.	.	.
.	.	12e-/	.	.	.	.
.	.	12c/J	.	.	.	.
!!LO:LB:g=original	!	!	!	!	!
=2	=2	=2	=2	=2	=2	=2
4CC/] 4C]	.	12g/L	<	4%9r	.	.
.	.	12e-/	.	.	.	.
.	.	12G/J	.	.	.	.
(4CC/	.	12g/L	.	.	.	.
.	.	12e-/	.	.	.	.
.	.	12G/J	.	.	.	.
4DD/	.	12g/L	.	.	.	.
.	.	12e-/	.	.	.	.
.	.	12G/J	.	.	.	.
4EE-/	.	12g/L	.	.	.	.
.	.	12e-/	.	.	.	.
.	.	12G/J	.	.	.	.
4AA-/	.	12g/L	.	.	.	.
.	.	12e-/	.	.	.	.
.	.	12G/J	.	.	.	.
4GG/	.	12g/L	.	.	.	.
.	.	12e-/	.	.	.	.
.	.	12G/J	.	.	.	.
2BBn/	.	12g/L	.	.	.	.
.	.	12e-/	.	.	.	.
.	.	12G/J	.	.	.	.
.	.	12g/L	.	.	.	.
.	.	12e-/	.	.	.	.
.	.	12G/J	.	.	.	.
4C/)	.	12g/L	.	.	.	.
.	.	12e-/	.	.	.	.
.	.	12G/J	.	.	.	.
=3	=3	=3	=3	=3	=3	=3
4D\	.	12g/L	.	4%9r	.	.
.	.	12f/	.	.	.	.
.	.	12G/J	.	.	.	.
4GG/	.	12g/L	.	.	.	.
.	.	12f/	.	.	.	.
.	.	12G/J	.	.	.	.
4AAn/	.	12g/L	.	.	.	.
.	.	12f/	.	.	.	.
.	.	12G/J	.	.	.	.
4BB-X/	.	12g/L	.	.	.	.
.	.	12f/	.	.	.	.
.	.	12G/J	.	.	.	.
4E-\	.	12g/L	.	.	.	.
.	.	12f/	.	.	.	.
.	.	12G/J	.	.	.	.
4D\	.	12g/L	.	.	.	.
.	.	12f/	.	.	.	.
.	.	12An/J	.	.	.	.
2F\	.	12g/L	.	.	.	.
.	.	12d/	.	.	.	.
.	.	12Bn/J	.	.	.	.
.	.	12a-/L	.	.	.	.
.	.	12d/	.	.	.	.
.	.	12B/J	.	.	.	.
4G\	.	12g/L	.	.	.	.
.	.	12d/	.	.	.	.
.	.	12B/J	.	.	.	.
!!LO:LB:g=original	!	!	!	!	!
=4	=4	=4	=4	=4	=4	=4
*^	*	*^	*	*	*	*
!LO:N:vis=2.	!	!	!	!	!	!	!	!
4A-/	2.A-\	.	4ryy	12r	[	4%9r	.	.
.	.	.	.	12f\L	f	.	.	.
.	.	.	.	12cc\J	.	.	.	.
4c/	.	.	4ff/	12ff\L	.	.	.	.
.	.	.	.	12cc\	.	.	.	.
.	.	.	.	12f\J	.	.	.	.
4c/	.	.	4ee-/	12ee-\L	.	.	.	.
.	.	.	.	12cc\	.	.	.	.
.	.	.	.	12f\J	.	.	.	.
2F\	2F\yy	.	4dd^/	12dd\L	.	.	.	.
.	.	.	.	12f\	.	.	.	.
.	.	.	.	12d\J	.	.	.	.
.	.	.	4dd/	12dd\L	.	.	.	.
.	.	.	.	12f\	.	.	.	.
.	.	.	.	12d\J	.	.	.	.
4An\	4A\yy	.	4cc/	12cc\L	.	.	.	.
.	.	.	.	12f#X\	.	.	.	.
.	.	.	.	12d\J	.	.	.	.
[2.G\	2.G\yy	.	4bn^/	12bn\L	.	.	.	.
.	.	.	.	12g\	.	.	.	.
.	.	.	.	12d\J	.	.	.	.
.	.	.	4b/	12b\L	.	.	.	.
.	.	.	.	12g\	.	.	.	.
.	.	.	.	12d\J	.	.	.	.
.	.	.	4a-X/	12a-X\L	.	.	.	.
.	.	.	.	12d\	.	.	.	.
.	.	.	.	12c\J	.	.	.	.
*v	*v	*	*	*	*	*	*	*
*	*	*v	*v	*	*	*	*
=5	=5	=5	=5	=5	=5	=5
2.G\]	.	12g/L	.	2r	.	.
.	.	12d/	.	.	.	.
.	.	12Bn/J	.	.	.	.
.	.	12g/L	.	.	.	.
.	.	12d/	.	.	.	.
.	.	12B/J	.	.	.	.
.	.	12g/L	.	4r	.	.
.	.	12d/	.	.	.	.
.	.	12B/J	.	.	.	.
!	!	!LO:TX:b:i:t=dim.	!	!	!	!
4r	.	12g/L	.	2r	.	.
.	.	12f/	.	.	.	.
.	.	12B/J	.	.	.	.
(4EE-/ 4E-	.	12g/L	.	.	.	.
.	.	12f/	.	.	.	.
.	.	12B/J	.	.	.	.
4DD/ 4D	.	12g/L	.	4r	.	.
.	.	12f/	.	.	.	.
.	.	12B/J	.	.	.	.
2.GGG/) 2.GG	.	12g/L	.	4r	.	.
.	.	12f/	.	.	.	.
.	.	12B/J	.	.	.	.
!	!	!	!	!	!	!LO:DY:a
.	.	12g/L	.	4G\	Ni-	p
.	.	12f/	.	.	.	.
.	.	12B/J	.	.	.	.
.	.	12g/L	.	4G\	-gdyż	.
.	.	12f/	.	.	.	.
.	.	12B/J	.	.	.	.
!!LO:PB:g=original	!	!	!	!	!
!!LO:LB:g=original	!	!	!	!	!
=6	=6	=6	=6	=6	=6	=6
[1.CC [1.C	.	12g/L	pp	[2.G\	ser-	.
.	.	12e-/	.	.	.	.
.	.	12c/J	.	.	.	.
.	.	12g/L	.	.	.	.
.	.	12e-/	.	.	.	.
.	.	12c/J	.	.	.	.
.	.	12g/L	.	.	.	.
.	.	12e-/	.	.	.	.
.	.	12c/J	.	.	.	.
.	.	12g/L	.	4G\]	.	.
.	.	12e-/	.	.	.	.
.	.	12c/J	.	.	.	.
!	!	!	!	!	!	!LO:DY:a
.	.	12g/L	.	4C/	-ce	<
.	.	12e-/	.	.	.	.
.	.	12c/J	.	.	.	.
.	.	12g/L	.	4D\	stęs-	.
.	.	12e-/	.	.	.	.
.	.	12c/J	.	.	.	.
2.CC/_ 2.C_	.	12g/L	.	(4E-\	-knio-	.
.	.	12e-/	.	.	.	.
.	.	12c/J	.	.	.	.
.	.	12g/L	.	4A-\	.	.
.	.	12e-/	.	.	.	.
.	.	12c/J	.	.	.	.
.	.	12g/L	.	4G\)	.	[[
.	.	12e-/	.	.	.	.
.	.	12c/J	.	.	.	.
=7	=7	=7	=7	=7	=7	=7
*	*	*^	*	*	*	*
!	!	!	!	!	!	!	!LO:DY:a
4CC/] 4C]	.	12g/L	1ryy	pp	[2.G\	-ne	>
.	.	12e-/	.	.	.	.	.
.	.	12c/J	.	.	.	.	.
4CC/	<	12g/L	.	.	.	.	.
.	.	12e-/	.	.	.	.	.
.	.	12c/J	.	.	.	.	.
4DD/	.	12g/L	.	.	.	.	.
.	.	12e-/	.	.	.	.	.
.	.	12c/J	.	.	.	.	.
4EE-/	.	12g/L	.	.	4G\]	.	.
.	.	12e-/	.	.	.	.	.
.	.	12c/J	.	.	.	.	.
4AA-/	.	12g/L	2ryy	.	4r	.	]
.	.	12e-/	.	.	.	.	.
.	.	12c/J	.	.	.	.	.
4GG/	[	12g/L	.	.	4r	.	.
.	.	12e-/	.	.	.	.	.
.	.	12c/J	.	.	.	.	.
2.GG/	>	4g/	12g\L	.	4r	.	.
.	.	.	12e-\	.	.	.	.
.	.	.	12c\J	.	.	.	.
!	!	!LO:TX:b:i:t=esspress.	!	!	!	!	!
.	.	4ee-^^/	12ee-\L	.	4G\	Mar	.
.	.	.	12g\	.	.	.	.
.	.	.	12e-\J	.	.	.	.
.	.	4dd/	12dd\L	.	4G\	mi-	.
.	]	.	12g\	.	.	.	.
.	.	.	12e-\J	.	.	.	.
*	*	*v	*v	*	*	*	*
!!LO:LB:g=original	!	!	!	!	!
=8	=8	=8	=8	=8	=8	=8
2.AA-/	.	12cc/L	.	[2.G\	-nio-	.
.	.	12g/	.	.	.	.
.	.	12e-/J	.	.	.	.
.	.	12cc/L	.	.	.	.
.	.	12g/	.	.	.	.
.	.	12e-/J	.	.	.	.
.	.	12cc/L	.	.	.	.
.	.	12g/	.	.	.	.
.	.	12e-/J	.	.	.	.
2.AAn/	.	12cc/L	<	4G\]	.	.
.	.	12g/	.	.	.	.
.	.	12e-/J	.	.	.	.
!	!	!	!	!	!	!LO:DY:a
.	.	12cc/L	.	4F\	-nych	<
.	.	12f/	.	.	.	.
.	.	12e-/J	.	.	.	.
.	.	12cc/L	.	4c\	nie	.
.	.	12f/	.	.	.	.
.	.	12e-/J	.	.	.	.
4BB-/	.	12cc/L	.	(2B-\	prze-	.
.	.	12f/	.	.	.	.
.	.	12e-/J	.	.	.	.
4C/	.	12cc/L	.	.	.	.
.	.	12f/	.	.	.	.
.	.	12e-/J	.	.	.	.
4D\	.	12a-/L	.	4A-\)	.	[[
.	.	12f/	.	.	.	.
.	.	12c/J	.	.	.	.
=9	=9	=9	=9	=9	=9	=9
!	!	!	!	!	!	!LO:DY:a
2.E-\	.	12g/L	[ >	[2.G\	-śni!	>
.	.	12f/	.	.	.	.
.	.	12B-/J	.	.	.	.
.	.	12g/L	.	.	.	.
.	.	12f/	.	.	.	.
.	.	12B-/J	.	.	.	.
.	.	12g/L	.	.	.	.
.	.	12f/	.	.	.	.
.	.	12B-/J	]	.	.	.
4r	.	12g/L	.	4G\]	.	.
.	.	12f/	.	.	.	.
.	.	12Bn/J	.	.	.	.
(4EE-/ 4E-	.	12g/L	.	4r	.	]
.	.	12f/	.	.	.	.
.	.	12B/J	.	.	.	.
4DD/ 4D	.	12g/L	.	4r	.	.
.	.	12f/	.	.	.	.
.	.	12B/J	.	.	.	.
2.GGG/) 2.GG	.	12g/L	.	4r	.	.
.	.	12f/	.	.	.	.
.	.	12B/J	.	.	.	.
.	.	12g/L	.	4G\	Wiecz-	.
.	.	12f/	.	.	.	.
.	.	12B/J	.	.	.	.
.	.	12g/L	.	4G\	-nież	.
.	.	12f/	.	.	.	.
.	.	12B/J	.	.	.	.
!!LO:LB:g=original	!	!	!	!	!
=10	=10	=10	=10	=10	=10	=10
[1.CC [1.C	.	12g/L	.	[2.G\	wje-	.
.	.	12e-/	.	.	.	.
.	.	12c/J	.	.	.	.
.	.	12g/L	.	.	.	.
.	.	12e-/	.	.	.	.
.	.	12c/J	.	.	.	.
.	.	12g/L	.	.	.	.
.	.	12e-/	.	.	.	.
.	.	12c/J	.	.	.	.
.	.	12g/L	.	4G\]	.	.
.	.	12e-/	.	.	.	.
.	.	12c/J	.	.	.	.
!	!	!	!	!	!	!LO:DY:a
.	.	12g/L	.	4C/	-dną	<
.	.	12e-/	.	.	.	.
.	.	12c/J	.	.	.	.
.	.	12g/L	.	4D\	gdzieś	.
.	.	12e-/	.	.	.	.
.	.	12c/J	.	.	.	.
2.CC/_ 2.C_	.	12g/L	.	(4E-\	stro-	.
.	.	12e-/	.	.	.	.
.	.	12c/J	.	.	.	.
.	.	12g/L	.	4A-\	.	.
.	.	12e-/	.	.	.	.
.	.	12c/J	.	.	.	.
.	.	12g/L	.	4G\)	.	[[
.	.	12e-/	.	.	.	.
.	.	12c/J	.	.	.	.
=11	=11	=11	=11	=11	=11	=11
*	*	*^	*	*	*	*
!	!	!	!	!	!	!	!LO:DY:a
4CC/] 4C]	.	12g/L	1ryy	pp	[2.G\	-nę	>
.	.	12e-/	.	.	.	.	.
.	.	12c/J	.	.	.	.	.
4CC/	p	12g/L	.	.	.	.	.
.	.	12e-/	.	.	.	.	.
.	.	12c/J	.	.	.	.	.
4DD/	<	12g/L	.	.	.	.	.
.	.	12e-/	.	.	.	.	.
.	.	12c/J	.	.	.	.	.
4EE-/	.	12g/L	.	.	4G\]	.	.
.	.	12e-/	.	.	.	.	.
.	.	12c/J	.	.	.	.	.
4AA-/	.	12g/L	2ryy	.	4r	.	]
.	.	12e-/	.	.	.	.	.
.	.	12c/J	.	.	.	.	.
4GG/	[	12g/L	.	.	4r	.	.
.	.	12e-/	.	.	.	.	.
.	.	12c/J	.	.	.	.	.
2.GG/	>	4g/	12g\L	.	4r	.	.
.	.	.	12e-\	.	.	.	.
.	.	.	12c\J	.	.	.	.
!	!	!LO:TX:b:i:t=esspress.	!	!	!	!	!
.	.	4ee-^^/	12ee-\L	.	4G\	Za	.
.	.	.	12g\	.	.	.	.
.	.	.	12e-\J	.	.	.	.
.	.	4dd/	12dd\L	.	4G\	cza-	.
.	.	.	12g\	.	.	.	.
.	]	.	12e-\J	.	.	.	.
*	*	*v	*v	*	*	*	*
!!LO:LB:g=original	!	!	!	!	!
!!LO:PB:g=original	!	!	!	!	!
=12	=12	=12	=12	=12	=12	=12
!	!	!	!LO:DY:a	!LO:TX:a:i:t=con affetto.	!	!LO:DY:a
2.AA-/	.	12cc/L	<	[2.G\	-ru-	<
.	.	12g/	.	.	.	.
.	.	12e-/J	.	.	.	.
.	.	12cc/L	.	.	.	.
.	.	12g/	.	.	.	.
.	.	12e-/J	.	.	.	.
.	.	12cc/L	.	.	.	.
.	.	12g/	.	.	.	.
.	.	12e-/J	.	.	.	.
2AAn/	.	12cc/L	.	4G\]	.	.
.	.	12g/	.	.	.	.
.	.	12e-/J	.	.	.	.
.	.	12cc/L	.	4F\	-je	.
.	.	12f/	.	.	.	.
.	.	12e-/J	.	.	.	.
4GG/	.	12cc/L	.	4e-\	me	.
.	.	12f/	.	.	.	.
.	.	12e-/J	.	.	.	.
4GG-X/	.	12dd/L	.	(2d\	pie-	.
.	.	12b-/	.	.	.	.
.	.	12e-/J	.	.	.	.
4FF/	.	12dd/L	.	.	.	.
.	.	12b-/	.	.	.	.
.	.	12e-/J	.	.	.	.
4F\	.	12cc/L	[[	4c\)	.	[[
.	.	12an/	.	.	.	.
.	.	12e-/J	.	.	.	.
=13	=13	=13	=13	=13	=13	=13
2.BB-/	.	12b-/L	.	(2.B-\	-śni?	.
.	.	12f/	.	.	.	.
.	.	12d/J	.	.	.	.
.	.	12b-/L	.	.	.	.
.	.	12f/	.	.	.	.
.	.	12d/J	.	.	.	.
.	.	12b-/L	.	.	.	.
.	.	12f/	.	.	.	.
.	.	12d/J	.	.	.	.
4r	.	12b-/L	.	4B-\)	.	.
.	.	12f/	.	.	.	.
.	.	12d/J	.	.	.	.
!	!	!LO:TX:b:i:t=dim.	!	!	!	!
(4GG/ 4G	.	12b-/L	.	4r	.	.
.	.	12f/	.	.	.	.
.	.	12d/J	.	.	.	.
4FF/ 4F	.	12b-/L	.	4r	.	.
.	.	12f/	.	.	.	.
.	.	12d/J	.	.	.	.
2.BBB-/) 2.BB-	.	12b-/L	.	4r	.	.
.	.	12f/	.	.	.	.
.	.	12d/J	.	.	.	.
.	.	12b-/L	.	4B-\	Jak	.
.	.	12f/	.	.	.	.
.	.	12d/J	.	.	.	.
.	.	12b-/L	.	4B-\	świat	.
.	.	12f/	.	.	.	.
.	.	12d/J	.	.	.	.
!!LO:LB:g=original	!	!	!	!	!
=14	=14	=14	=14	=14	=14	=14
!	!	!	!	!LO:TX:a:i:t=crescendo sempre ed animato	!	!LO:DY:a
4D-X/	.	12b-/L	p	[2.B-\	dłu-	p
!	!	!LO:TX:b:i:t=crescendo sempre ed animato	!	!	!	!
.	.	12f/	.	.	.	.
.	.	12B-/J	.	.	.	.
4C/	.	12b-/L	.	.	.	.
.	.	12f/	.	.	.	.
.	.	12B-/J	.	.	.	.
4BB-/	.	12b-/L	.	.	.	.
.	.	12f/	.	.	.	.
.	.	12B-/J	.	.	.	.
4AA-/	.	12b-/L 12dd-X	.	2B-\]	.	.
.	.	12f/	.	.	.	.
.	.	12d-X/J	.	.	.	.
4GG/	.	12b-/L 12dd-	.	.	.	.
.	.	12f/	.	.	.	.
.	.	12d-/J	.	.	.	.
4FF/	.	12b-/L 12dd-	.	4A-\	-gi,	.
.	.	12f/	.	.	.	.
.	.	12d-/J	.	.	.	.
2.EEn/	.	12dd-/L 12gg	sf	4G\	jak	.
.	.	12b-/	.	.	.	.
.	.	12g/J	.	.	.	.
.	.	12b-/L	.	4d-X\	świat	.
.	.	12g/	.	.	.	.
.	.	12d-/J	.	.	.	.
.	.	12b-/L	.	4c\	sze-	.
.	.	12g/	.	.	.	.
.	.	12d-/J	.	.	.	.
=15	=15	=15	=15	=15	=15	=15
4EE-X/	.	12b-/L	.	2.B-\	-ro-	.
.	.	12g-X/	.	.	.	.
.	.	12c/J	.	.	.	.
4DD-X/	.	12b-/L	.	.	.	.
.	.	12g-/	.	.	.	.
.	.	12c/J	.	.	.	.
4CC/	.	12b-/L	.	.	.	.
.	.	12g-/	.	.	.	.
.	.	12c/J	.	.	.	.
[2.FF/	.	12an/L	.	4An\	-ki,	.
.	.	12f/	.	.	.	.
.	.	12c/J	.	.	.	.
.	.	12a/L	.	4r	.	.
.	.	12f/	.	.	.	.
.	.	12c/J	.	.	.	.
.	.	12g-/L	.	4r	.	.
.	.	12f/	.	.	.	.
.	.	12c/J	.	.	.	.
2.FF/]	.	12f/L	.	4r	.	.
.	.	12c/	.	.	.	.
.	.	12An/J	.	.	.	.
.	.	12f/L	.	4c\	Zlut-	.
.	.	12c/	.	.	.	.
.	.	12A/J	.	.	.	.
.	.	12f/L	.	4c\	-nią	.
.	.	12c/	.	.	.	.
.	.	12A/J	.	.	.	.
!!LO:LB:g=original	!	!	!	!	!
=16	=16	=16	=16	=16	=16	=16
4E-\	.	12cc/L	.	[2.c\	mo-	.
.	.	12g/	.	.	.	.
.	.	12c/J	.	.	.	.
4D\	.	12cc/L	.	.	.	.
.	.	12g/	.	.	.	.
.	.	12c/J	.	.	.	.
4C/	.	12cc/L	.	.	.	.
.	.	12g/	.	.	.	.
.	.	12c/J	.	.	.	.
4BB-/	.	12cc/L 12ee-	.	2c\]	.	.
.	.	12g/	.	.	.	.
.	.	12e-/J	.	.	.	.
4AAn/	.	12cc/L 12ee-	.	.	.	.
.	.	12g/	.	.	.	.
.	.	12e-/J	.	.	.	.
4GG/	.	12cc/L 12ee-	.	4B-\	-ją	.
.	.	12g/	.	.	.	.
.	.	12e-/J	.	.	.	.
2.FF#X/	.	12ee-\L 12aan	sf	4An\	zlut	.
.	.	12cc\	.	.	.	.
.	.	12an\J	.	.	.	.
.	.	12cc/L	.	4e-\	nią	.
.	.	12a/	.	.	.	.
.	.	12e-/J	.	.	.	.
.	.	12cc/L	.	4d\	po	.
.	.	12a/	.	.	.	.
.	.	12e-/J	.	.	.	.
=17	=17	=17	=17	=17	=17	=17
4FFn/	.	12cc/L	.	2.c\	dró-	.
.	.	12a-X/	.	.	.	.
.	.	12d/J	.	.	.	.
4EE-/	.	12cc/L	.	.	.	.
.	.	12a-/	.	.	.	.
.	.	12d/J	.	.	.	.
4DD/	.	12cc/L	.	.	.	.
.	.	12a-/	.	.	.	.
.	.	12d/J	.	.	.	.
[2.GG/	.	12bn/L	.	4Bn\	-żną	.
.	.	12g/	.	.	.	.
.	.	12d/J	.	.	.	.
!	!	!LO:TX:b:i:t=dim.	!	!	!	!
.	.	12b/L	.	4r	.	.
.	.	12g/	.	.	.	.
.	.	12d/J	.	.	.	.
.	.	12an/L	.	4r	.	.
.	.	12g/	.	.	.	.
.	.	12c/J	.	.	.	.
2.GG/]	.	12g/L	.	4r	.	.
.	.	12d/	.	.	.	.
.	.	12Bn/J	.	.	.	.
!	!	!	!	!	!	!LO:DY:a
.	.	12g/L	.	4G\	Zmie-	p
.	.	12d/	.	.	.	.
.	.	12B/J	.	.	.	.
.	.	12g/L	.	4G\	-niam	.
.	.	12d/	.	.	.	.
.	.	12B/J	.	.	.	.
!!LO:LB:g=original	!	!	!	!	!
!!LO:PB:g=original	!	!	!	!	!
=18	=18	=18	=18	=18	=18	=18
[1.CC [1.C	.	12g/L	.	[2.G\	miej-	.
.	.	12e-/	.	.	.	.
.	.	12c/J	.	.	.	.
.	.	12g/L	.	.	.	.
.	.	12e-/	.	.	.	.
.	.	12c/J	.	.	.	.
.	.	12g/L	.	.	.	.
.	.	12e-/	.	.	.	.
.	.	12c/J	.	.	.	.
.	.	12g/L	.	4G\]	.	.
.	.	12e-/	.	.	.	.
.	.	12c/J	.	.	.	.
!	!	!	!	!	!	!LO:DY:a
.	.	12g/L	.	4C/	-sca	<
.	.	12e-/	.	.	.	.
.	.	12c/J	.	.	.	.
.	.	12g/L	.	4D\	wi-	.
.	.	12e-/	.	.	.	.
.	.	12c/J	.	.	.	.
2.CC/_ 2.C_	.	12g/L	.	(4E-\	-do-	.
.	.	12e-/	.	.	.	.
.	.	12c/J	.	.	.	.
.	.	12g/L	.	4A-\	.	.
.	.	12e-/	.	.	.	.
.	.	12c/J	.	.	.	.
.	.	12g/L	.	4G\)	.	[[
.	.	12e-/	.	.	.	.
.	.	12c/J	.	.	.	.
=19	=19	=19	=19	=19	=19	=19
*	*	*^	*	*	*	*
!	!	!	!	!	!	!	!LO:DY:a
4CC/] 4C]	.	12g/L	1ryy	.	[2.G\	-ki,	>
.	.	12e-/	.	.	.	.	.
.	.	12c/J	.	.	.	.	.
4CC/	<	12g/L	.	.	.	.	.
.	.	12e-/	.	.	.	.	.
.	.	12c/J	.	.	.	.	.
4DD/	.	12g/L	.	.	.	.	.
.	.	12e-/	.	.	.	.	.
.	.	12c/J	.	.	.	.	.
4EE-/	.	12g/L	.	.	4G\]	.	.
.	.	12e-/	.	.	.	.	.
.	.	12c/J	.	.	.	.	.
4AA-/	.	12g/L	2ryy	.	4r	.	]
.	.	12e-/	.	.	.	.	.
.	.	12c/J	.	.	.	.	.
4GG/	[	12g/L	.	.	4r	.	.
.	.	12e-/	.	.	.	.	.
.	.	12c/J	.	.	.	.	.
2.GG/	>	4g/	12g\L	f	4r	.	.
.	.	.	12e-\	.	.	.	.
.	.	.	12c\J	.	.	.	.
!	!	!L	!	!	!	!	!LO:DY:a
.	.	4ee-^^/	12ee-\L	.	4c\	A-	f
.	.	.	12g\	.	.	.	.
.	.	.	12e-\J	.	.	.	.
.	.	4dd/	12dd\L	.	4c\	-le	.
.	.	.	12g\	.	.	.	.
.	]	.	12e-\J	.	.	.	.
*	*	*v	*v	*	*	*	*
!!LO:LB:g=original	!	!	!	!	!
=20	=20	=20	=20	=20	=20	=20
!	!	!LO:TX:b:i:t=con gran affetto	!	!LO:TX:a:i:t=con gran affetto	!	!
4AA-/	.	12cc/L	.	[2.c\	zmie-	.
.	.	12f/	.	.	.	.
.	.	12c/J	.	.	.	.
4GG/	.	12cc/L	.	.	.	.
.	.	12f/	.	.	.	.
.	.	12c/J	.	.	.	.
4FF/	.	12cc/L	.	.	.	.
.	.	12f/	.	.	.	.
.	.	12c/J	.	.	.	.
2E-\	.	12cc/L	.	4c\]	.	.
.	.	12g/	.	.	.	.
.	.	12c/J	.	.	.	.
.	.	12cc/L	.	4c\	-niam	.
.	.	12g/	.	.	.	.
.	.	12c/J	.	.	.	.
4E-\	.	12cc/L	.	4c\	na	.
.	.	12g/	.	.	.	.
.	.	12c/J	.	.	.	.
2C/	.	12cc/L	.	(4c\	pró-	.
.	.	12g/	.	.	.	.
.	.	12c/J	.	.	.	.
.	.	12cc/L	.	4e-\	.	.
.	.	12g/	.	.	.	.
.	.	12c/J	.	.	.	.
4BB-/	.	12cc/L	.	4d\)	.	.
.	.	12g/	.	.	.	.
.	.	12c/J	.	.	.	.
=21	=21	=21	=21	=21	=21	=21
4AAn/	.	12cc/L	.	2.c\	-żno,	.
.	.	12f#X/	.	.	.	.
.	.	12c/J	.	.	.	.
4GG/	.	12cc/L	.	.	.	.
.	.	12g/	.	.	.	.
.	.	12c/J	.	.	.	.
4FF#X/	.	12cc/L	.	.	.	.
.	.	12an/	.	.	.	.
.	.	12c/J	.	.	.	.
2E-\	.	12cc/L	.	4c\	zmie-	.
.	.	12g/	.	.	.	.
.	.	12c/J	.	.	.	.
.	.	12cc/L	.	4c\	-niam	.
.	.	12g/	.	.	.	.
.	.	12c/J	.	.	.	.
4D\	.	12cc/L	.	4c\	na	.
.	.	12g/	.	.	.	.
.	.	12c/J	.	.	.	.
2C/	.	12cc/L	.	(4c\	pró-	.
.	.	12g/	.	.	.	.
.	.	12c/J	.	.	.	.
.	.	12cc/L	.	4e-\)	.	.
.	.	12g/	.	.	.	.
.	.	12c/J	.	.	.	.
4BB-/	.	12cc/L	.	4d\	-żno,	.
.	.	12g/	.	.	.	.
.	.	12c/J	.	.	.	.
!!LO:LB:g=original	!	!	!	!	!
=22	=22	=22	=22	=22	=22	=22
!	!	!	!	!	!	!LO:DY:a
*Xtuplet	*	*	*	*	*	*
12AA-/L	.	12cc/L	ff	4c\	zmie-	ff
12E-/	.	12e-/	.	.	.	.
12A-/J	.	12c/J	.	.	.	.
12AA-/L	.	12cc/L	.	4A-\	-niam	.
12E-/	.	12e-/	.	.	.	.
12A-/J	.	12c/J	.	.	.	.
12AA-/L	.	12cc/L	.	4G\	na	.
12E-/	.	12e-/	.	.	.	.
12A-/J	.	12c/J	.	.	.	.
12DD-X/L	.	12ff/L	.	4F\	pró-	.
12AA-/	.	12a-/	.	.	.	.
12D-X/J	.	12f/J	.	.	.	.
12DD-/L	.	12ff/L	.	4E-\	-żno,	.
12AA-/	.	12a-/	.	.	.	.
12D-/J	.	12f/J	.	.	.	.
12FF/L	.	12ff/L	.	4D-X\	na	.
12D-/	.	12a-/	.	.	.	.
12F/J	.	12f/J	.	.	.	.
!	!	!LO:TX:b:i:t=dim.	!	!LO:TX:a:i:t=dim.	!	!
12GG/L	.	12cc/L	.	(4C/	pró-	.
12E-/	.	12g/	.	.	.	.
12G/J	.	12c/J	.	.	.	.
12GG/L	.	12cc/L	.	4E-\	.	.
12E-/	.	12f#X/	.	.	.	.
12A-/J	.	12c/J	.	.	.	.
12GG/L	.	12bn/L	.	4Dn\)	.	.
12Dn/	.	12fn/	.	.	.	.
12G/J	.	12Bn/J	.	.	.	.
=23	=23	=23	=23	=23	=23	=23
2.C/	.	12cc/L	.	2C/	-żno	.
.	.	12e-/	.	.	.	.
.	.	12c/J	.	.	.	.
.	.	12cc/L	.	.	.	.
.	.	12e-/	.	.	.	.
.	.	12c/J	.	.	.	.
.	.	12cc/L	.	4r	.	.
.	.	12e-/	.	.	.	.
.	.	12c/J	.	.	.	.
4r	.	12bn/L	.	2r	.	.
.	.	12f/	.	.	.	.
.	.	12d/J	.	.	.	.
!	!	!LO:TX:b:i:t=sempre piu piano e	!	!	!	!
(4A-\	>	12b/L	.	.	.	.
.	.	12f/	.	.	.	.
.	.	12d/J	.	.	.	.
4G\	.	12b/L	.	4r	.	.
.	.	12f/	.	.	.	.
.	.	12d/J	.	.	.	.
2.C/)	]	12b-X/L	.	2r	.	.
.	.	12en/	.	.	.	.
.	.	12d-X/J	.	.	.	.
.	.	12b-/L	.	.	.	.
.	.	12e/	.	.	.	.
.	.	12d-/J	.	.	.	.
.	.	12b-/L	.	4r	.	.
.	.	12e/	.	.	.	.
.	.	12d-/J	.	.	.	.
!!LO:LB:g=original	!	!	!	!	!
!!LO:PB:g=original	!	!	!	!	!
=24	=24	=24	=24	=24	=24	=24
*	*	*^	*	*	*	*
!	!	!LO:TX:b:i:t=rallentando	!	!	!	!	!
2.F\	.	12an/L	1ryy	.	2r	.	.
.	.	12e-/	.	.	.	.	.
.	.	12c/J	.	.	.	.	.
.	.	12a/L	.	.	.	.	.
.	.	12e-/	.	.	.	.	.
.	.	12c/J	.	.	.	.	.
.	.	12a/L	.	.	4r	.	.
.	.	12e-/	.	.	.	.	.
.	.	12c/J	.	.	.	.	.
2.BB-/	.	12a-X/L	.	.	2r	.	.
.	.	12d/	.	.	.	.	.
.	.	12c/J	.	.	.	.	.
.	.	12a-/L	2ryy	.	.	.	.
.	.	12d/	.	.	.	.	.
.	.	12c/J	.	.	.	.	.
.	.	12a-/L	.	.	4r	.	.
.	.	12d/	.	.	.	.	.
.	.	12c/J	.	.	.	.	.
2.E-\	.	12g/L	4g\	.	4r	.	.
.	.	12d-X/	.	.	.	.	.
.	.	12B-/J	.	.	.	.	.
!	!	!	!	!	!	!	!LO:DY:a
.	.	12f/L	4f\	.	4E-\	Przez	pp
.	.	12d-/	.	.	.	.	.
.	.	12B-/J	.	.	.	.	.
.	.	12e-/L	4e-\	.	4E-\	miejsc	.
.	.	12d-/	.	.	.	.	.
.	.	12B-/J	.	.	.	.	.
*	*	*v	*v	*	*	*	*
=25||	=25||	=25||	=25||	=25||	=25||	=25||
*k[b-e-a-d-]	*	*k[b-e-a-d-]	*	*k[b-e-a-d-]	*	*
!	!	!	!	!LO:TX:a:B:t=piu lento e tranquillo.	!	!
2AA-/ 2E-	.	8r	.	2.A-\	ty-	.
.	.	(8c/L	pp	.	.	.
.	.	8e-/	.	.	.	.
.	.	8a-/	.	.	.	.
4r	.	8ee-/	.	.	.	.
.	.	8ee-'/J)	.	.	.	.
2AA-/ 2E-	.	8r	.	2.A-\	-le	.
.	.	(8c/L	.	.	.	.
.	.	8e-/	.	.	.	.
.	.	8a-/	.	.	.	.
4r	.	8ee-/	.	.	.	.
.	.	8ee-'/J)	.	.	.	.
2AA-/ 2E-	.	8r	.	(4A-\	chwil	.
.	.	(8d-/L	.	.	.	.
.	.	8g/	.	4B-\	.	.
.	.	8b-/	.	.	.	.
4r	.	8ee-/	.	4E-\)	.	.
.	.	8ee-'/J)	.	.	.	.
!!LO:LB:g=original	!	!	!	!	!
=26	=26	=26	=26	=26	=26	=26
2AA-/ 2E-	.	8r	.	([2c\	ty-	.
.	.	(8c/L	.	.	.	.
.	.	8e-/	.	.	.	.
.	.	8a-/	.	.	.	.
4r	.	8ee-/	.	8c\L]	.	.
.	.	8ee-'/J)	.	8G\J)	.	.
2AA-/ 2E-	.	8r	.	2F\	-le	.
.	.	(8c/L	.	.	.	.
.	.	8e-/	.	.	.	.
.	.	8a-/	.	.	.	.
4r	.	8ee-/	.	4r	.	.
.	.	8ee-'/J)	.	.	.	.
2AA-/ 2E-	.	8r	.	2r	.	.
.	.	(8c/L	.	.	.	.
.	.	8e-/	.	.	.	.
.	.	8a-/	.	.	.	.
4r	.	8cc/	.	4r	.	.
.	.	8cc'/J)	.	.	.	.
=27	=27	=27	=27	=27	=27	=27
!	!	!	!	!	!	!LO:DY:a
2FF/ 2F	.	8r	.	2.c\	ka-	<
.	.	(8c/L	<	.	.	.
.	.	8f/	.	.	.	.
.	.	8a-/	.	.	.	.
4r	.	8cc/	.	.	.	.
.	.	8cc'/J)	.	.	.	.
2FF/ 2F	.	8r	.	2.c\	-żdy	.
.	.	(8c/L	.	.	.	.
.	.	8f/	.	.	.	.
.	.	8a-/	.	.	.	.
4r	.	8cc/	.	.	.	.
.	.	8cc'/J)	.	.	.	.
2FF-X/ 2F-X	.	8r	.	4c\	dla	.
.	.	(8d-/L	.	.	.	.
.	.	8g-X/	.	4d-X\	mnie	.
.	.	8b-/	.	.	.	.
4r	.	8dd-/	.	4G-X\	za	[[
.	.	8dd-'/J)	.	.	.	.
!!LO:LB:g=original	!	!	!	!	!
!!LO:PB:g=original	!	!	!	!	!
=28	=28	=28	=28	=28	=28	=28
2EE-/ 2E-	.	8r	.	([2e-\	ką-	.
.	.	(8e-/L	.	.	.	.
.	.	8g-X/	.	.	.	.
.	.	8cc-X/	.	.	.	.
4r	.	8ee-/	.	8e-\L]	.	.
.	.	8ee-'/J)	.	8d-\J)	.	.
2EE-/ 2E-	.	8r	[	2c-X\	-tek,	.
.	.	(8e-/L	.	.	.	.
.	.	8g-/	.	.	.	.
.	.	8cc-/	.	.	.	.
4r	.	8ee-/	.	4r	.	.
.	.	8ee-'/J)	.	.	.	.
2EE-/ 2E-	.	8r	.	4r	.	.
.	.	(8c-X/L	>	.	.	.
!	!	!	!	!	!	!LO:DY:a
.	.	8e-/	.	4c-\	wszy-	>
.	.	8g-/	.	.	.	.
4r	.	8cc-/	.	4B-\	-stkie,	.
.	.	8cc-'/J)	.	.	.	.
=29	=29	=29	=29	=29	=29	=29
2FF-X/ 2F-X	.	8r	.	2.A-\	wszy-	.
.	.	(8c-X/L	.	.	.	.
.	.	8e-/	.	.	.	.
.	.	8a-/	.	.	.	.
4r	.	8cc-X/	.	.	.	.
.	.	8cc-'/J)	.	.	.	.
2FF-/ 2F-	.	8r	.	2.A-\	-stkie	.
.	.	(8c-/L	.	.	.	.
.	.	8e-/	.	.	.	.
.	.	8a-/	.	.	.	.
4r	.	8cc-/	.	.	.	.
.	.	8cc-'/J)	.	.	.	.
!	!	!	!	!	!	!LO:DY:a
2FF-/ 2F-	.	8r	.	4A-\	dla	] pp
.	.	(8c-/L	] pp	.	.	.
.	.	8dn/	.	4A-\	mnie	.
.	.	8a-/	.	.	.	.
4r	.	8cc-/	.	4A-\	tu	.
.	.	8cc-'/J)	.	.	.	.
!!LO:LB:g=original	!	!	!	!	!
!!LO:PB:g=original	!	!	!	!	!
=30	=30	=30	=30	=30	=30	=30
!	!	!	!	!	!	!LO:DY:a
2EE-/ 2E-	.	8r	.	[2.cn\	chwi-	<
.	.	(8cn/L	<	.	.	.
.	.	8e-/	.	.	.	.
.	.	8a-/	.	.	.	.
4EEn/ 4En	.	8cc/	.	.	.	.
.	.	8cc'/J)	.	.	.	.
2FFn/ 2Fn	.	8r	.	2c\]	.	.
.	.	(8c/L	.	.	.	.
.	.	8e-/	.	.	.	.
.	.	8a-/	.	.	.	.
4r	.	8cc/	.	4B-\	-le	.
.	.	8cc'/J)	[	.	.	.
!	!	!	!	!	!	!LO:DY:a
2FF/ 2F	.	8r	.	(4A-\	są-	[ >
.	.	(8c-X/L	>	.	.	.
.	.	8e-/	.	4G\)	.	.
.	.	8a-/	.	.	.	.
4r	.	8cc-X/	.	4F\	-bez	]]
.	.	8cc-'/J)	.	.	.	.
=31	=31	=31	=31	=31	=31	=31
2BBB-/ 2BB-	.	8r	]	2.E-\	wra-	.
.	.	(8B-/L	.	.	.	.
.	.	8e-/	.	.	.	.
.	.	8g/	.	.	.	.
4r	.	8a-/	.	.	.	.
.	.	8a-'/J)	.	.	.	.
2BBB-/ 2BB-	.	8r	.	4E-\	-żeń	.
.	.	(8G/L	.	.	.	.
.	.	8B-/	.	4E-\	bez	.
.	.	8e-/	.	.	.	.
4r	.	8g/	.	4E-\	pa-	.
.	.	8g'/J)	.	.	.	.
2BBB-/ 2BB-	.	8r	.	2.B-\	-mią-	.
.	.	(8A-/L	.	.	.	.
.	.	8dn/	.	.	.	.
.	.	8f/	.	.	.	.
4r	.	8b-/	.	.	.	.
.	.	8b-'/J)	.	.	.	.
!!LO:LB:g=original	!	!	!	!	!
=32	=32	=32	=32	=32	=32	=32
*^	*	*	*	*	*	*
4E-/	2EE-\	.	8r	.	[2.E-\	-tek.	.
.	.	.	(8G/L	<	.	.	.
4E-/	.	.	8B-/	.	.	.	.
.	.	.	8e-/	.	.	.	.
4E-/	4r	.	8g/	.	.	.	.
.	.	.	8g'/J)	.	.	.	.
4E-/	2EE-\	.	8r	.	4E-\]	.	.
.	.	.	(8B-/L	.	.	.	.
4E-/	.	.	8e-/	.	4r	.	.
.	.	.	8g/	.	.	.	.
4E-/	4r	.	8b-/	.	4r	.	.
.	.	.	8b-'/J)	.	.	.	.
4E-/	2EE-\	.	8r	.	2r	.	.
.	.	.	(8e-/L	.	.	.	.
4E-/	.	.	8g/	.	.	.	.
.	.	.	8b-/	.	.	.	.
4E-/	4r	.	8ee-/	.	4r	.	.
.	.	.	8ee-'/J)	.	.	.	.
*v	*v	*	*	*	*	*	*
*clefG2	*	*	*	*	*	*
=33	=33	=33	=33	=33	=33	=33
8d-/L	.	8r	[	4r	.	.
8e-/	.	(8g\L	p	.	.	.
!	!	!	!	!LO:TX:a:i:t=con expressione	!	!
8d-/	.	8b-\	.	4B-\	I	.
8e-/	.	8ee-\J)	.	.	.	.
8d-/	.	8ee-'\	.	4B-\	to	.
8e-/J	.	8r	.	.	.	.
8c/L	.	8r	.	2.A-\	ser-	.
8e-/	.	(8a-\L	.	.	.	.
8c/	.	8ee-\	.	.	.	.
8e-/	.	8aa-\J)	.	.	.	.
8c/	.	8aa-'\	.	.	.	.
8e-/J	.	8r	.	.	.	.
8c/L	.	8r	.	2A-\	-ce,	.
8e-/	.	(8ee-\L	.	.	.	.
8c/	.	8aa-\	.	.	.	.
8e-/	.	8eee-\J)	.	.	.	.
8c/	.	8eee-'\	.	4e-\	o	.
8e-/J	.	8r	.	.	.	.
*clefF4	*	*	*	*	*	*
!!LO:LB:g=original	!	!	!	!	!
=34	=34	=34	=34	=34	=34	=34
8D-\L	.	8d-/L	.	(2F\	dzi-	.
8A-\	.	8f/	.	.	.	.
8D-\	.	8d-/	.	.	.	.
8A-\	.	8f/	.	.	.	.
8BB-\	.	8d-/	.	4G\)	.	.
8B-\J	.	8g/J	.	.	.	.
8AA-/L	.	8c/L	.	4A-\	-wo!	.
8E-/	.	8a-/	.	.	.	.
8AA-/	.	8c/	.	4c\	Jak	.
8E-/	.	8a-/	.	.	.	.
8AA-/	.	8c/	.	4B-\	czu-	.
8E-/J	.	8a-/J	.	.	.	.
8AA-/L	.	8c/L	.	4A-\	-ją-	.
8E-/	.	8e-/	.	.	.	.
8AA-/	.	8c/	.	4G\	-ce	.
8E-/	.	8e-/	.	.	.	.
8AA-/	.	8c-X/	.	4F\	dziś	.
8E-/J	.	8f/J	.	.	.	.
=35	=35	=35	=35	=35	=35	=35
8EE-/L	.	8B-/L	<	([2.E-\	ma-	.
8E-/	.	8g/	.	.	.	.
8EE-/	.	8B-/	.	.	.	.
8E-/	.	8g/	.	.	.	.
8EE-/	.	8B-/	.	.	.	.
8E-/J	.	8g/J	.	.	.	.
8EE-/L	.	8d-X/L	.	2.E-\_	.	.
8E-/	.	8b-/	.	.	.	.
8EE-/	.	8d-/	.	.	.	.
8E-/	.	8b-/	.	.	.	.
8EE-/	.	8d-/	.	.	.	.
8E-/J	.	8b-/J	.	.	.	.
8EE-/L	.	8c/L	.	4E-\]	.	.
8E-/	.	8an/	.	.	.	.
8EE-/	.	8c/	.	8Dn\L	.	.
8E-/	.	8a/	.	8E-\	.	.
8EE-/	.	8c/	.	8G\	.	.
8E-/J	.	8a/J	.	8F\J)	.	.
!!LO:LB:g=original	!	!	!	!	!
!!LO:PB:g=original	!	!	!	!	!
=36	=36	=36	=36	=36	=36	=36
8EE-/L	.	8c-X/L	[ >	[2.E-\	-ło	.
8E-/	.	8a-X/	.	.	.	.
8EE-/	.	8c-/	.	.	.	.
8E-/	.	8a-/	.	.	.	.
8EE-/	.	8c-/	.	.	.	.
8E-/J	.	8a-/J	.	.	.	.
8EE-/L	.	8B-/L	.	4E-\]	.	.
8E-/	.	8g/	.	.	.	.
8EE-/	.	8B-/	.	4r	.	.
8E-/	.	8g/	.	.	.	.
8EE-/	.	8B-/	.	4r	.	.
8E-/J	.	8g/J	.	.	.	.
8EE-/L	.	8G/L	.	2r	.	.
8E-/	.	8e-/	.	.	.	.
8EE-/	.	8G/	.	.	.	.
8E-/	.	8e-/	.	.	.	.
8EE-/	.	8G/	.	4r	.	.
8E-/J	.	8e-/J	.	.	.	.
*clefG2	*	*	*	*	*	*
=37	=37	=37	=37	=37	=37	=37
*tremolo	*	*	*	*	*	*
8d-/L	.	8r	]	4r	.	.
8e-/	.	(8g\L	.	.	.	.
!	!	!	!	!	!	!LO:DY:a
8d-/	.	8b-\	.	4B-\	In	mf
8e-/	.	8ee-\J)	.	.	.	.
8d-/	.	8ee-'\	.	4E-\	dziej	.
8e-/J	.	8r	.	.	.	.
!	!	!LO:TX:b:i:t=con anima e cresc.	!	!LO:TX:a:i:t=con anima e cresc.	!	!
8c/L	.	8r	.	2A-\	bi-	.
8e-/	.	(8a-\L	.	.	.	.
8c/	.	8ee-\	.	.	.	.
8e-/	.	8aa-\J)	.	.	.	.
8c/	.	8aa-'\	.	4A-\	-ło	.
8e-/J	.	8r	.	.	.	.
8g-X/L	.	8r	.	4e-\	bi-	.
8a-/	.	(8ee-\L	.	.	.	.
8g-/	.	8aa-\	.	4e-\	-ło	.
8a-/	.	8eee-\J)	.	.	.	.
8g-/	.	8eee-'\	.	4A-\	tak	.
8a-/J	.	8r	.	.	.	.
!!LO:LB:g=original	!	!	!	!	!
=38	=38	=38	=38	=38	=38	=38
8f/L	.	8r	.	2d-\	ży-	.
8a-/	.	(8dd-\L	.	.	.	.
8f/	.	8aa-\	.	.	.	.
8a-/	.	8ddd-\J)	.	.	.	.
8f/	.	8ddd-'\	.	4d-\	-wo	.
8a-/J	.	8r	.	.	.	.
8e-/L	.	8r	.	4r	.	.
8f/	.	(8an\L	.	.	.	.
8e-/	.	8cc\	.	4c\	Tak	.
8f/	.	8ff\J)	.	.	.	.
8e-/	.	8ff'\	.	4F\	pto-	.
8f/J	.	8r	.	.	.	.
8d-/L	.	8r	.	4B-\	-mien-	.
8f/	.	(8b-\L	.	.	.	.
8d-/	.	8ff\	.	4A-\	-nie	.
8f/	.	8bb-\J)	.	.	.	.
8d-/	.	8bb-'\	.	4F\	ko-	.
8f/J	.	8r	.	.	.	.
=39	=39	=39	=39	=39	=39	=39
!	!	!	!	!	!	!LO:DY:a
8e-/L	.	8r	.	[2.E-\	-cha-	f
8a-/	.	(8cc\L	f >	.	.	.
8e-/	.	8ee-\	.	.	.	.
8a-/	.	8ccc\J)	.	.	.	.
8e-/	.	8ccc'\	.	.	.	.
8a-/J	.	8r	.	.	.	.
*clefF4	*	*	*	*	*	*
8E-\L	.	8r	.	4E-\]	.	.
8c\	.	(8e-/L	.	.	.	.
8E-\	.	8a-/	.	4E-\	-ło	.
8c\	.	8ee-/J)	.	.	.	.
!	!	!	!	!	!	!LO:DY:a
8E-\	.	8ee-'\	.	4E-\	ko-	>
8c\J	.	8r	.	.	.	.
8E-\L	.	8r	.	(2F\	-cha-	.
8B-\	.	(8d-/L	.	.	.	.
8E-\	.	8g/	.	.	.	.
8B-\	.	8ee-/J)	.	.	.	.
8E-\	.	8ee-'\	.	4E-\)	.	]]
8B-\J	.	8r	.	.	.	.
!!LO:LB:g=original	!	!	!	!	!
=40	=40	=40	=40	=40	=40	=40
2AA-/ 2E-	.	8r	]	2A-\	-ło	.
.	.	(8c/L	.	.	.	.
.	.	8e-/	.	.	.	.
.	.	8a-/	.	.	.	.
4r	.	8ee-/	.	4r	.	.
.	.	8ee-'/J)	.	.	.	.
!	!	!	!	!	!	!LO:DY:a
2AA-/ 2E-	.	8r	.	[1.e-	Jak	<
.	.	(8c/L	<	.	.	.
.	.	8e-/	.	.	.	.
.	.	8a-/	.	.	.	.
4r	.	8ee-/	.	.	.	.
.	.	8ee-'/J)	.	.	.	.
2GG/ 2E-	.	8r	.	.	.	.
.	.	(8c/L	.	.	.	.
.	.	8e-/	.	.	.	.
.	.	8a-/	.	.	.	.
4r	.	8ee-/	.	.	.	.
.	.	8ee-'/J)	.	.	.	.
=41	=41	=41	=41	=41	=41	=41
2FF/ 2F	.	8r	.	2e-\]	.	.
.	.	(8c/L	.	.	.	.
.	.	8e-/	.	.	.	.
.	.	8a-/	.	.	.	.
4r	.	8cc/	.	4F\	czu-	.
.	.	8cc'/J)	.	.	.	.
2AA-/	.	8r	.	4F\	-ją-	.
.	.	(8c/L	.	.	.	.
.	.	8e-/	.	4F\	-ce	.
.	.	8a-/	.	.	.	.
4r	.	8cc/	.	4F\	dziś	[
.	.	8cc'/J)	.	.	.	.
!	!	!	!	!	!	!LO:DY:a
2AA-/	.	8r	[	(2dn\	ma-	>
.	.	(8c/L	>	.	.	.
.	.	8dn/	.	.	.	.
.	.	8f/	.	.	.	.
4r	.	8cc/	.	4c\)	.	]]
.	.	8cc'/J)	.	.	.	.
!!LO:LB:g=original	!	!	!	!	!
!!LO:PB:g=original	!	!	!	!	!
=42||	=42||	=42||	=42||	=42||	=42||	=42||
*k[b-e-a-]	*	*k[b-e-a-]	*	*k[b-e-a-]	*	*
*^	*	*^	*	*	*	*
!	!	!	!	!	!	!LO:TX:a:B:t=Tempo I.	!	!
4GG/	4ryy	.	4ryy	12r	]	2Bn\	ło.	.
.	.	.	.	12f/L	.	.	.	.
.	.	.	.	12a-/J	.	.	.	.
4Bn/	[2G\	.	12ff\L	4ff/	<	.	.	.
.	.	.	12a-\	.	.	.	.	.
.	.	.	12f\J	.	.	.	.	.
4c/	.	.	12ee-\L	4ee-/	.	4r	.	.
.	.	.	12a-\	.	.	.	.	.
.	.	.	12f\J	.	.	.	.	.
2d/	1.G_	.	12dd\L	4dd/	.	2r	.	.
.	.	.	12a-\	.	.	.	.	.
.	.	.	12f\J	.	.	.	.	.
.	.	.	12dd\L	4dd/	.	.	.	.
.	.	.	12a-\	.	.	.	.	.
.	.	.	12f\J	.	.	.	.	.
4ryy	.	.	12cc\L	4cc/	.	4r	.	.
.	.	.	12f#X\	.	.	.	.	.
.	.	.	12e-\J	.	.	.	.	.
2ryy	.	.	12bn\L	4bn/	.	2r	.	.
.	.	.	12g\	.	.	.	.	.
.	.	.	12d\J	.	.	.	.	.
.	.	.	12b\L	4b/	.	.	.	.
.	.	.	12g\	.	.	.	.	.
.	.	.	12d\J	.	.	.	.	.
4ryy	.	.	12a-X\L	4a-X/	.	4r	.	.
.	.	.	12d\	.	.	.	.	.
.	.	.	12c\J	.	.	.	.	.
*	*	*	*v	*v	*	*	*	*
!!LO:LB:g=original	!	!	!	!	!	!
=43	=43	=43	=43	=43	=43	=43	=43
1ryy	2.G\]	.	12g/L	.	2r	.	.
.	.	.	12d/	.	.	.	.
.	.	.	12Bn/J	.	.	.	.
.	.	.	12g/L	.	.	.	.
.	.	.	12d/	.	.	.	.
.	.	.	12B/J	.	.	.	.
!	!	!	!LO:TX:b:i:t=dim.	!	!	!	!
.	.	.	12g/L	.	4r	.	.
.	.	.	12d/	.	.	.	.
.	.	.	12B/J	.	.	.	.
.	4ryy	.	12g/L	.	2r	.	.
.	.	.	12f/	.	.	.	.
.	.	.	12B/J	.	.	.	.
4E-/ (4EE-/	4ryy	.	12g/L	.	.	.	.
.	.	.	12f/	.	.	.	.
.	.	.	12B/J	.	.	.	.
4D/ 4DD/	4ryy	.	12g/L	.	4r	.	.
.	.	.	12f/	.	.	.	.
.	.	.	12B/J	.	.	.	.
2.GG/ 2.GGG/)	2.ryy	.	12g/L	.	4r	.	.
.	.	.	12f/	.	.	.	.
.	.	.	12B/J	.	.	.	.
!	!	!	!	!	!	!	!LO:DY:a
.	.	.	12g/L	.	4G\	Ach	p
.	.	.	12f/	.	.	.	.
.	.	.	12B/J	.	.	.	.
.	.	.	12g/L	.	4G\	przed	.
.	.	.	12f/	.	.	.	.
.	.	.	12B/J	.	.	.	.
*v	*v	*	*	*	*	*	*
!!LO:LB:g=original	!	!	!	!	!
=44	=44	=44	=44	=44	=44	=44
[1.CC [1.C	.	12g/L	pp	[2.G\	mo-	.
.	.	12e-/	.	.	.	.
.	.	12c/J	.	.	.	.
.	.	12g/L	.	.	.	.
.	.	12e-/	.	.	.	.
.	.	12c/J	.	.	.	.
.	.	12g/L	.	.	.	.
.	.	12e-/	.	.	.	.
.	.	12c/J	.	.	.	.
.	.	12g/L	.	4G\]	.	.
.	.	12e-/	.	.	.	.
.	.	12c/J	.	.	.	.
!	!	!	!	!	!	!LO:DY:a
.	.	12g/L	.	4C/	-krą	<
.	.	12e-/	.	.	.	.
.	.	12c/J	.	.	.	.
.	.	12g/L	.	4D\	po-	.
.	.	12e-/	.	.	.	.
.	.	12c/J	.	.	.	.
2.CC/_< 2.C_	.	12g/L	.	(4E-\	-wie-	.
.	.	12e-/	.	.	.	.
.	.	12c/J	.	.	.	.
.	.	12g/L	.	4A-\	.	.
.	.	12e-/	.	.	.	.
.	.	12c/J	.	.	.	.
.	.	12g/L	.	4G\)	.	[[
.	.	12e-/	.	.	.	.
.	.	12c/J	.	.	.	.
!!LO:LB:g=original	!	!	!	!	!
=45	=45	=45	=45	=45	=45	=45
*	*	*^	*	*	*	*
4CC/] 4C]	.	12g/L	1ryy	.	[2.G\	-ką,	.
.	.	12e-/	.	.	.	.	.
.	.	12c/J	.	.	.	.	.
4CC/	<	12g/L	.	.	.	.	.
.	.	12e-/	.	.	.	.	.
.	.	12c/J	.	.	.	.	.
4DD/	.	12g/L	.	.	.	.	.
.	.	12e-/	.	.	.	.	.
.	.	12c/J	.	.	.	.	.
4EE-/	.	12g/L	.	.	4G\]	.	.
.	.	12e-/	.	.	.	.	.
.	.	12c/J	.	.	.	.	.
4AA-/	.	12g/L	2ryy	.	4r	.	.
.	.	12e-/	.	.	.	.	.
.	.	12c/J	.	.	.	.	.
4GG/	[	12g/L	.	.	4r	.	.
.	.	12e-/	.	.	.	.	.
.	.	12c/J	.	.	.	.	.
2.GG/	>	12g\L	4g/	.	4r	.	.
.	.	12e-\	.	.	.	.	.
.	.	12c\J	.	.	.	.	.
!	!	!LO:TX:b:i:t=expressivo	!	!	!	!	!
.	.	12ee-\L	4ee-^^>/	.	4G\	Dar-	.
.	.	12g\	.	.	.	.	.
.	.	12e-\J	.	.	.	.	.
.	.	12dd\L	4dd/	.	4G\	-mo	.
.	.	12g\	.	.	.	.	.
.	]	12e-\J	.	.	.	.	.
*	*	*v	*v	*	*	*	*
!!LO:LB:g=original	!	!	!	!	!
!!LO:PB:g=original	!	!	!	!	!
=46	=46	=46	=46	=46	=46	=46
2.AA-/	.	12cc/L	.	[2.G\	dzień	.
.	.	12g/	.	.	.	.
.	.	12e-/J	.	.	.	.
.	.	12cc/L	.	.	.	.
.	.	12g/	.	.	.	.
.	.	12e-/J	.	.	.	.
.	.	12cc/L	.	.	.	.
.	.	12g/	.	.	.	.
.	.	12e-/J	.	.	.	.
2.AAn/	.	12cc/L	<	4G\]	.	.
.	.	12g/	.	.	.	.
.	.	12e-/J	.	.	.	.
!	!	!	!	!	!	!LO:DY:a
.	.	12cc/L	.	4F\	mi	<
.	.	12f/	.	.	.	.
.	.	12e-/J	.	.	.	.
.	.	12cc/L	.	4c\	to	.
.	.	12f/	.	.	.	.
.	.	12e-/J	.	.	.	.
4BB-/	.	12cc/L	.	[2B-\	pło-	.
.	.	12f/	.	.	.	.
.	.	12e-/J	.	.	.	.
4C/	.	12b-/L	.	.	.	.
.	.	12f/	.	.	.	.
.	.	12d/J	.	.	.	.
4D/	.	12a-/L	.	4B-\]	.	[[
.	.	12f/	.	.	.	.
.	.	12c/J	.	.	.	.
!!LO:LB:g=original	!	!	!	!	!
=47	=47	=47	=47	=47	=47	=47
!	!	!	!	!	!	!LO:DY:a
2.E-\	.	12g/L	[ >	[2.G\	-nie!	>
.	.	12f/	.	.	.	.
.	.	12B-/J	.	.	.	.
.	.	12g/L	.	.	.	.
.	.	12f/	.	.	.	.
.	.	12B-/J	.	.	.	.
.	.	12g/L	.	.	.	.
.	.	12f/	.	.	.	.
.	.	12B-/J	]	.	.	.
4r	.	12g/L	.	4G\]	.	.
.	.	12f/	.	.	.	.
.	.	12Bn/J	.	.	.	.
(4EE-/ 4E-	>	12g/L	.	4r	.	]
.	.	12f/	.	.	.	.
.	.	12B/J	.	.	.	.
4DD/ 4D	.	12g/L	.	4r	.	.
.	.	12f/	.	.	.	.
.	.	12B/J	.	.	.	.
2.GGG/) 2.GG	]	12g/L	.	4r	.	.
.	.	12f/	.	.	.	.
.	.	12B/J	.	.	.	.
.	.	12g/L	.	4G\	Wzrok,	.
.	.	12f/	.	.	.	.
.	.	12B/J	.	.	.	.
.	.	12g/L	.	4G\	jak	.
.	.	12f/	.	.	.	.
.	.	12B/J	.	.	.	.
!!LO:LB:g=original	!	!	!	!	!
=48	=48	=48	=48	=48	=48	=48
[1.CC [1.C	.	12g/L	.	[2.G\	pie-	.
.	.	12e-/	.	.	.	.
.	.	12c/J	.	.	.	.
.	.	12g/L	.	.	.	.
.	.	12e-/	.	.	.	.
.	.	12c/J	.	.	.	.
.	.	12g/L	.	.	.	.
.	.	12e-/	.	.	.	.
.	.	12c/J	.	.	.	.
.	.	12g/L	.	4G\]	.	.
.	.	12e-/	.	.	.	.
.	.	12c/J	.	.	.	.
!	!	!	!	!	!	!LO:DY:a
.	.	12g/L	.	4C/	-śni	<
.	.	12e-/	.	.	.	.
.	.	12c/J	.	.	.	.
.	.	12g/L	.	4D\	da-	.
.	.	12e-/	.	.	.	.
.	.	12c/J	.	.	.	.
2.CC/_ 2.C_	.	12g/L	.	(4E-\	-le-	.
.	.	12e-/	.	.	.	.
.	.	12c/J	.	.	.	.
.	.	12g/L	.	4A-\	.	.
.	.	12e-/	.	.	.	.
.	.	12c/J	.	.	.	.
.	.	12g/L	.	4G\)	.	[[
.	.	12e-/	.	.	.	.
.	.	12c/J	.	.	.	.
!!LO:LB:g=original	!	!	!	!	!
=49	=49	=49	=49	=49	=49	=49
*	*	*^	*	*	*	*
!	!	!	!	!	!	!	!LO:DY:a
4CC/] 4C]	.	12g/L	1ryy	.	[2.G\	-ko	>
.	.	12e-/	.	.	.	.	.
.	.	12c/J	.	.	.	.	.
4CC/	p <	12g/L	.	.	.	.	.
.	.	12e-/	.	.	.	.	.
.	.	12c/J	.	.	.	.	.
4DD/	.	12g/L	.	.	.	.	.
.	.	12e-/	.	.	.	.	.
.	.	12c/J	.	.	.	.	.
4EE-/	.	12g/L	.	.	4G\]	.	.
.	.	12e-/	.	.	.	.	.
.	.	12c/J	.	.	.	.	.
4AA-/	.	12g/L	2ryy	.	4r	.	.
.	.	12e-/	.	.	.	.	.
.	.	12c/J	.	.	.	.	.
4GG/	[	12g/L	.	.	4r	.	]
.	.	12e-/	.	.	.	.	.
.	.	12c/J	.	.	.	.	.
2.GG/	>	12g\L	4g/	.	4r	.	.
.	.	12e-\	.	.	.	.	.
.	.	12c\J	.	.	.	.	.
.	.	12ee-\L	4ee-^^>/	.	4G\	Wie-	.
.	.	12g\	.	.	.	.	.
.	.	12e-\J	.	.	.	.	.
.	.	12dd\L	4dd/	.	4G\	-cznie	.
.	.	12g\	.	.	.	.	.
.	]	12e-\J	.	.	.	.	.
*	*	*v	*v	*	*	*	*
!!LO:LB:g=original	!	!	!	!	!
!!LO:PB:g=original	!	!	!	!	!
=50	=50	=50	=50	=50	=50	=50
1.AAn	.	12cc/L	.	[2.G\	wje-	.
.	.	12g/	.	.	.	.
.	.	12e-/J	.	.	.	.
.	.	12cc/L	.	.	.	.
.	.	12g/	.	.	.	.
.	.	12e-/J	.	.	.	.
.	.	12cc/L	.	.	.	.
.	.	12g/	.	.	.	.
.	.	12e-/J	.	.	.	.
!	!	!	!	!	!	!LO:DY:a
.	.	12cc/L	<	4G\]	.	<
.	.	12g/	.	.	.	.
.	.	12e-/J	.	.	.	.
.	.	12cc/L	.	4F\	-dnej	.
.	.	12f/	.	.	.	.
.	.	12e-/J	.	.	.	.
.	.	12cc/L	.	4e-\	tkwi	.
.	.	12f/	.	.	.	.
.	.	12e-/J	.	.	.	.
2.AA-X/	.	12f#X/L	.	(2d\	stro-	.
.	.	12d/	.	.	.	.
.	.	12c/J	.	.	.	.
.	.	12f#/L	.	.	.	.
.	.	12d/	.	.	.	.
.	.	12c/J	.	.	.	.
.	.	12f#/L	.	4c\)	.	[[
.	.	12d/	.	.	.	.
.	.	12c/J	[	.	.	.
!!LO:LB:g=original	!	!	!	!	!
=51	=51	=51	=51	=51	=51	=51
!	!	!	!	!	!	!LO:DY:a
2.GG/	.	12g/L	.	[2.Bn\	-nie.	>
.	.	12d/	.	.	.	.
.	.	12Bn/J	.	.	.	.
.	.	12g/L	.	.	.	.
.	.	12d/	.	.	.	.
.	.	12B/J	.	.	.	.
.	.	12g/L	.	.	.	.
.	.	12d/	.	.	.	.
.	.	12B/J	.	.	.	.
4r	.	12g/L	.	4B\]	.	.
.	.	12d/	.	.	.	.
.	.	12B/J	.	.	.	.
!	!LO:HP:a	!	!	!	!	!
(4EEn/ 4En	>	12g/L	.	4r	.	]
.	.	12c/	.	.	.	.
.	.	12B/J	.	.	.	.
4DD/ 4D	.	12g/L	.	4r	.	.
.	.	12d/	.	.	.	.
.	.	12B/J	.	.	.	.
2.GGG/) 2.GG	]	12g/L	.	4r	.	.
.	.	12d/	.	.	.	.
.	.	12B/J	.	.	.	.
.	.	12g/L	.	4G\	Ku-	.
.	.	12d/	.	.	.	.
.	.	12B/J	.	.	.	.
.	.	12g/L	.	4G\	-niej	.
.	.	12d/	.	.	.	.
.	.	12B/J	.	.	.	.
!!LO:LB:g=original	!	!	!	!	!
=52||	=52||	=52||	=52||	=52||	=52||	=52||
*k[]	*	*k[]	*	*k[]	*	*
*	*	*	*	*	*	*
!	!	!	!	!	!	!LO:DY:a
4BB-X/	.	12g/L	[ p	[2.G\	tę-	p
.	.	12d/	.	.	.	.
.	.	12G/J	.	.	.	.
4AA/	.	12g/L	.	.	.	.
.	.	12d/	.	.	.	.
.	.	12G/J	.	.	.	.
!	!	!LO:TX:b:i:t=cresc. sempre ed animato	!	!	!	!
4GG/	.	12g/L	.	.	.	.
.	.	12d/	.	.	.	.
.	.	12G/J	.	.	.	.
!	!	!	!	!LO:TX:a:i:t=cresc. sempre ed animato	!	!
4FF/	.	12g/L 12b-X	.	2G\]	.	.
.	.	12d/	.	.	.	.
.	.	12B-X/J	.	.	.	.
4EE/	.	12g/L 12b-	.	.	.	.
.	.	12d/	.	.	.	.
.	.	12B-/J	.	.	.	.
4DD/	.	12g/L 12b-	.	4F\	sknię	.
.	.	12d/	.	.	.	.
.	.	12B-/J	.	.	.	.
2.CC#/	.	12b-/L 12ee	sf	4E\	tę-	.
.	.	12g/	.	.	.	.
.	.	12e/J	.	.	.	.
.	.	12g/L	.	4B-X\	-sknię	.
.	.	12e/	.	.	.	.
.	.	12B-/J	.	.	.	.
.	.	12g/L	.	4A\	zwie-	.
.	.	12e/	.	.	.	.
.	.	12B-/J	.	.	.	.
!!LO:LB:g=original	!	!	!	!	!
=53	=53	=53	=53	=53	=53	=53
4CCn/	.	12g/L	.	2.G\	-czo-	.
.	.	12e-X/	.	.	.	.
.	.	12A/J	.	.	.	.
4BBB-X/	.	12g/L	.	.	.	.
.	.	12e-/	.	.	.	.
.	.	12A/J	.	.	.	.
4AAA/	.	12g/L	.	.	.	.
.	.	12e-/	.	.	.	.
.	.	12A/J	.	.	.	.
2.DD/	.	12f#X/L	.	4F#X\	-ra,	.
.	.	12d/	.	.	.	.
.	.	12A/J	.	.	.	.
.	.	12f#/L	.	4r	.	.
.	.	12d/	.	.	.	.
.	.	12A/J	.	.	.	.
.	.	12e-/L	.	4r	.	.
.	.	12d/	.	.	.	.
.	.	12G/J	.	.	.	.
2.D\	.	12d/L	.	4r	.	.
.	.	12A</	.	.	.	.
.	.	12F#X</J	.	.	.	.
.	.	12d/L	.	4c\	Zju-	.
.	.	12A</	.	.	.	.
.	.	12F#</J	.	.	.	.
.	.	12d/L	.	4c\	-trznia	.
.	.	12A</	.	.	.	.
.	.	12F#</J	.	.	.	.
!!LO:LB:g=original	!	!	!	!	!
!!LO:PB:g=original	!	!	!	!	!
=54	=54	=54	=54	=54	=54	=54
4E\	.	12cc/L	.	[2.c\	tę-	.
.	.	12g/	.	.	.	.
.	.	12c/J	.	.	.	.
4D\	.	12cc/L	.	.	.	.
.	.	12g/	.	.	.	.
.	.	12c/J	.	.	.	.
4C/	.	12cc/L	.	.	.	.
.	.	12g/	.	.	.	.
.	.	12c/J	.	.	.	.
4BB/	.	12cc/L 12ee	.	2c\]	.	.
.	.	12g/	.	.	.	.
.	.	12e/J	.	.	.	.
4AA/	.	12cc/L 12ee	.	.	.	.
.	.	12g/	.	.	.	.
.	.	12e/J	.	.	.	.
4GG/	.	12cc/L 12ee	.	4G\	-sknię	.
.	.	12g/	.	.	.	.
.	.	12e/J	.	.	.	.
2.FF#X/	.	12ee\L 12aa	sf	4F\	tę-	.
.	.	12cc\	.	.	.	.
.	.	12a\J	.	.	.	.
.	.	12cc/L	.	4e\	-sknię	.
.	.	12a/	.	.	.	.
.	.	12e/J	.	.	.	.
.	.	12cc/L	.	4d\	i	.
.	.	12a/	.	.	.	.
.	.	12e/J	.	.	.	.
!!LO:LB:g=original	!	!	!	!	!
=55	=55	=55	=55	=55	=55	=55
4FFn/	.	12cc/L	.	2.c\	pła-	.
.	.	12a-X/	.	.	.	.
.	.	12d/J	.	.	.	.
4EE/	.	12cc/L	.	.	.	.
.	.	12a-/	.	.	.	.
.	.	12d/J	.	.	.	.
4DD/	.	12cc/L	.	.	.	.
.	.	12a-/	.	.	.	.
.	.	12d/J	.	.	.	.
[2.GG/	.	12b/L	.	[2.B\	-czę	.
.	.	12g/	.	.	.	.
.	.	12d/J	.	.	.	.
.	.	12b/L	.	.	.	.
.	.	12g/	.	.	.	.
.	.	12d/J	.	.	.	.
.	.	12b/L	.	.	.	.
.	.	12g/	.	.	.	.
.	.	12d/J	.	.	.	.
2.GG/_	.	12b/L	.	4B\]	.	.
.	.	12g/	.	.	.	.
.	.	12d/J	.	.	.	.
.	.	12an/L	.	4A\	Bom	.
.	.	12f#X/	.	.	.	.
.	.	12c/J	.	.	.	.
.	.	12g/L	.	4G\	po-	.
.	.	12fn/	.	.	.	.
.	.	12B/J	.	.	.	.
!!LO:LB:g=original	!	!	!	!	!
=56	=56	=56	=56	=56	=56	=56
4GG/]	.	12g/L	.	2.G\	-że-	.
.	.	12e/	.	.	.	.
.	.	12c/J	.	.	.	.
4CC/	.	12g/L	.	.	.	.
.	.	12e/	.	.	.	.
.	.	12c/J	.	.	.	.
!	!	!LO:TX:b:i:t=con gran espressione	!	!	!	!
4DD/	.	12g/L	.	.	.	.
.	.	12e/	.	.	.	.
.	.	12c/J	.	.	.	.
!	!	!	!	!LO:TX:a:i:t=con gran espressione	!	!
4EE/	.	12cc/L	.	2c\	-gnał	.
.	.	12e/	.	.	.	.
.	.	12c/J	.	.	.	.
4AA/	.	12cc/L	.	.	.	.
.	.	12e/	.	.	.	.
.	.	12c/J	.	.	.	.
4GG/	.	12cc/L	.	4c\	nie	.
.	.	12e/	.	.	.	.
.	.	12c/J	.	.	.	.
4FF/	.	12cc/L	.	2.c\	wczo-	.
.	.	12b-X/	.	.	.	.
.	.	12d/J	.	.	.	.
4GG/	.	12cc/L	.	.	.	.
.	.	12b-/	.	.	.	.
.	.	12d/J	.	.	.	.
4CC/	.	12cc/L	.	.	.	.
.	.	12b-/	.	.	.	.
.	.	12e/J	.	.	.	.
!!LO:LB:g=original	!	!	!	!	!
=57	=57	=57	=57	=57	=57	=57
1.FF	.	12cc/L	.	4c\	-ra,	.
.	.	12a-X/	.	.	.	.
.	.	12f/J	.	.	.	.
.	.	12cc/L	.	4A-X\	I	.
.	.	12a-/	.	.	.	.
.	.	12f/J	.	.	.	.
.	.	12cc/L	.	4G\	nie	.
.	.	12a-/	.	.	.	.
.	.	12f/J	.	.	.	.
.	.	12cc/L	.	4F\	ju-	.
.	.	12a-/	.	.	.	.
.	.	12c/J	.	.	.	.
.	.	12cc/L	.	4E\	-tro	.
.	.	12a-/	.	.	.	.
.	.	12c/J	.	.	.	.
.	.	12cc/L	.	4D\	o	.
.	.	12a-/	.	.	.	.
.	.	12c/J	.	.	.	.
2.FF#X/	.	12cc/L	.	(4C/	ba-	.
.	.	12an/	.	.	.	.
.	.	12d/J	.	.	.	.
.	.	12cc/L	.	4E\	.	.
.	.	12a/	.	.	.	.
.	.	12d/J	.	.	.	.
.	.	12cc/L	.	4D\)	.	.
.	.	12a/	.	.	.	.
.	.	12d/J	.	.	.	.
!!LO:LB:g=original	!	!	!	!	!
!!LO:PB:g=original	!	!	!	!	!
=58	=58	=58	=58	=58	=58	=58
4GG/	.	12cc/L	.	[2.C/	czę-	.
.	.	12g/	.	.	.	.
.	.	12e/J	.	.	.	.
4C/	.	12cc/L	.	.	.	.
.	.	12f/	.	.	.	.
.	.	12e/J	.	.	.	.
4D/	.	12cc/L	.	.	.	.
.	.	12f/	.	.	.	.
.	.	12e/J	.	.	.	.
4E/	.	12g/L	.	4C/]	.	.
.	.	12e/	.	.	.	.
.	.	12c/J	.	.	.	.
4EE/	.	12g/L	.	4G\	-nie	.
.	.	12e/	.	.	.	.
.	.	12c/J	.	.	.	.
4FF/	.	12g/L	.	4G\	o	.
.	.	12e/	.	.	.	.
.	.	12c/J	.	.	.	.
!	!	!	!	!	!	!LO:DY:a
2.GG\	.	12d/L	.	(4G\	ba-	>
.	.	12B/	>	.	.	.
.	.	12F</J	.	.	.	.
.	.	12d/L	.	4A\	.	.
.	.	12B/	.	.	.	.
.	.	12F</J	.	.	.	.
.	.	12d/L	.	4F\)	.	]]
.	.	12B/	.	.	.	.
.	.	12F</J	.	.	.	.
=59	=59	=59	=59	=59	=59	=59
8BB-X\	.	8E</L 8c	]	4E\	-czę	.
8r	.	(8c/	.	.	.	.
*Xtremolo	*	*	*	*	*	*
8B-X\L	.	8e/	.	4G\	Zjutrz-	.
8c\	.	8cc/J)	.	.	.	.
!	!	!LO:TX:b:i:t=un poco accel. e cresc.	!	!LO:TX:a:i:t=un poco accel. e cresc.	!	!
8B-\	.	8cc'\	.	4G\	-nią	.
8c\J	.	8r	.	.	.	.
*tremolo	*	*	*	*	*	*
8A\L	.	8r	.	[2.F\	tę-	.
8c\	.	(8f\L	.	.	.	.
8A\	.	8cc\	.	.	.	.
8c\	.	8ff\J)	.	.	.	.
8A\	.	8ff'\	.	.	.	.
8c\J	.	8r	.	.	.	.
8A\L	.	8r	.	2F\]	.	.
8c\	.	(8cc\L	.	.	.	.
8A\	.	8ff\	.	.	.	.
8c\	.	8ccc\J)	.	.	.	.
8A\	.	8ccc'\	.	4c\	-sknię,	.
8c\J	.	8r	.	.	.	.
!!LO:LB:g=original	!	!	!	!	!
=60	=60	=60	=60	=60	=60	=60
8c\L	.	8r	.	4r	.	.
8d\	.	(8f#X/L	.	.	.	.
8c\	.	8a/	.	4A\	zjutrz-	.
8d\	.	8dd/J)	.	.	.	.
8c\	.	8dd'\	.	4A\	-nią	.
8d\J	.	8r	.	.	.	.
8B\L	.	8r	.	[2.G\	pła-	.
8d\	.	(8g\L	.	.	.	.
8B\	.	8dd\	.	.	.	.
8d\	.	8ff\J)	.	.	.	.
8B\	.	8gg'\	.	.	.	.
8d\J	.	8r	.	.	.	.
8B\L	.	8r	.	2G\]	.	.
8d\	.	(8dd\L	.	.	.	.
8B\	.	8gg\	.	.	.	.
8d\	.	8ddd\J)	.	.	.	.
8B\	.	8ddd'\	.	4d\	-czę,	.
8d\J	.	8r	.	.	.	.
=61	=61	=61	=61	=61	=61	=61
*^	*	*	*	*	*	*
!	!	!	!LO:TX:b:i:t=ritenuto poco a poco	!	!	!	!
8d\L	1ryy	.	8r	.	4r	.	.
8e\	.	.	(8g#X\L	.	.	.	.
!	!	!	!	!	!LO:TX:a:i:t=ritenuto poco a poco	!	!
8d\	.	.	8b\	.	4B\	pła-	.
8e\	.	.	8ee\J)	.	.	.	.
8d\	.	.	8ee'\	.	4B\	-czę,	.
8e\J	.	.	8r	.	.	.	.
8c\L	.	.	8r	.	(4A\	bom	.
8e\	.	.	(8a\L	.	.	.	.
8c\	2ryy	.	8ee\	.	4e\)	.	.
8e\	.	.	8aa\J)	.	.	.	.
8c\	.	.	8aa'\	.	4d\	po-	.
8e\J	.	.	8r	.	.	.	.
8A/L	2.D\	.	8r	.	4c\	-że-	.
8c/	.	.	(8f#X\L	.	.	.	.
8A/	.	.	8a\	.	4B\	-gnał	.
8c/	.	.	8ee\J)	.	.	.	.
8A/	.	.	8ee'\	.	4A\	nie	.
8c/J	.	.	8r	.	.	.	.
*v	*v	*	*	*	*	*	*
!!LO:LB:g=original	!	!	!	!	!
=62	=62	=62	=62	=62	=62	=62
8G\L	.	8r	.	2.G\	wczo-	.
8c\	.	(8e/L	.	.	.	.
8G\	.	8g/	.	.	.	.
8c\	.	8ee/J)	.	.	.	.
8G\	.	8ee'\	.	.	.	.
8c\J	.	8r	.	.	.	.
8G\L	.	8r	.	4G\	-ra,	.
8e\	.	(8g\L	.	.	.	.
8G\	.	8cc\	.	4C/	I	.
8e\	.	8gg\J)	.	.	.	.
8G\	.	8gg'\	.	4D\	nie	.
8e\J	.	8r	.	.	.	.
8G\L	.	8r	.	4E\	ju-	.
8d\	.	(8fn\L	.	.	.	.
8G\	.	8b\	.	4D\	-tro	.
8d\	.	8gg\J)	.	.	.	.
8G\	.	8gg'\	.	4G\	o	.
8d\J	.	8r	.	.	.	.
=63	=63	=63	=63	=63	=63	=63
4r	.	12g/L	.	2.G\	ba-	.
.	.	12e/	.	.	.	.
.	.	12c/J	.	.	.	.
!	!	!LO:TX:b:i:t=sempre piu largo e suonore.	!	!	!	!
4CC/	.	12g/L	.	.	.	.
.	.	12e/	.	.	.	.
.	.	12c/J	.	.	.	.
4DD/	.	12g/L	.	.	.	.
.	.	12e/	.	.	.	.
.	.	12c/J	.	.	.	.
!	!	!	!	!LO:TX:a:i:t=sempre piu largo e suonore.	!	!
4EE/	.	12cc/L	.	[2.c\	-czę!	.
.	.	12b-X/	.	.	.	.
.	.	12c/J	.	.	.	.
4AA-X/	.	12cc/L	.	.	.	.
.	.	12b-/	.	.	.	.
.	.	12c/J	.	.	.	.
4GG/	.	12cc/L	.	.	.	.
.	.	12b-/	.	.	.	.
.	.	12c/J	.	.	.	.
4FF/	.	12cc/L	.	4c\]	.	.
.	.	12b-/	.	.	.	.
.	.	12d/J	.	.	.	.
4GG/	.	12cc/L	.	4c\	I	.
.	.	12b-/	.	.	.	.
.	.	12d/J	.	.	.	.
[4CC/	.	12cc/L	.	4c\	nie	.
.	.	12b-/	.	.	.	.
.	.	12e/J	.	.	.	.
!!LO:LB:g=original	!	!	!	!	!
!!LO:PB:g=original	!	!	!	!	!
=64	=64	=64	=64	=64	=64	=64
1.CC_ [1.C	.	12cc/L	.	(4c\	ju-	.
.	.	12a-X/	.	.	.	.
.	.	12f/J	.	.	.	.
.	.	12cc/L	.	4A-X\	.	.
.	.	12a-/	.	.	.	.
.	.	12f/J	.	.	.	.
.	.	12cc/L	.	4G\)	.	.
.	.	12a-/	.	.	.	.
.	.	12f/J	.	.	.	.
.	.	12a-/L	.	(4F\	-tro	.
.	.	12f/	.	.	.	.
.	.	12c/J	.	.	.	.
.	.	12a-/L	.	4E\)	.	.
.	.	12f/	.	.	.	.
.	.	12c/J	.	.	.	.
.	.	12a-/L	.	4D\	o-	.
.	.	12f/	.	.	.	.
.	.	12c/J	.	.	.	.
2.CC/] 2.C]	.	12f/L	.	(4C/	-ba-	.
.	.	12c/	.	.	.	.
.	.	12A-X/J	.	.	.	.
.	.	12f/L	.	4E\	.	.
.	.	12c/	.	.	.	.
.	.	12A-/J	.	.	.	.
.	.	12f/L	.	4D\)	.	.
.	.	12c/	.	.	.	.
.	.	12A-/J	.	.	.	.
!!LO:LB:g=original	!	!	!	!	!
=65	=65	=65	=65	=65	=65	=65
*^	*	*^	*	*	*	*
12C/L	4C\	.	12ff\L	4ff/	.	[2.C/	-czę!	.
12A-X/	.	.	12cc\	.	.	.	.	.
12c/J	.	.	12f\J	.	.	.	.	.
12C/L	4C\	.	12ee-X\L	4ee-/	.	.	.	.
12A-/	.	.	12a-X\	.	.	.	.	.
12c/J	.	.	12f\J	.	.	.	.	.
12C/L	4C\	.	12dd-X\L	4dd-/	.	.	.	.
12A-/	.	.	12a-\	.	.	.	.	.
12c/J	.	.	12f\J	.	.	.	.	.
12C/L	4C\	.	12cc\L	4cc/	.	2C/]	.	.
12F/	.	.	12f\	.	.	.	.	.
12A-/J	.	.	12c\J	.	.	.	.	.
12C/L	4C\	.	12a-\L	4a-/	.	.	.	.
12F/	.	.	12f\	.	.	.	.	.
12A-/J	.	.	12c\J	.	.	.	.	.
12C/L	4C\	.	12g\L	4g/	.	4r	.	.
12F/	.	.	12c\	.	.	.	.	.
12A-/J	.	.	12A-X\J	.	.	.	.	.
12CC\L	4CC/	.	12f\L	4f/	.	2r	.	.
12AA-X\	.	.	12c\	.	.	.	.	.
12C\J	.	.	12A-X</J	.	.	.	.	.
12CC\L	4CC/	.	12e-X\L	4e-/	.	.	.	.
12AA-\	.	.	12A-</	.	.	.	.	.
12C\J	.	.	12F</J	.	.	.	.	.
12CC\L	4CC/	.	12d-X\L	4d-/	.	4r	.	.
12AA-\	.	.	12A-</	.	.	.	.	.
12C\J	.	.	12F</J	.	.	.	.	.
!!LO:LB:g=original	!	!	!	!	!	!	!
=66	=66	=66	=66	=66	=66	=66	=66	=66
!	!	!	!LO:TX:a:i:t=perdendosi	!	!	!	!	!
12CC\L	4CC/	.	12c^^\L	4c/	.	4%9r	.	.
12GG\	.	.	12G</	.	.	.	.	.
12C\J	.	.	12E</J	.	.	.	.	.
12CC\L	4CC/	.	12c\L	4c/	.	.	.	.
12GG\	.	.	12G</	.	.	.	.	.
12C\J	.	.	12E</J	.	.	.	.	.
12CC\L	4CC/	.	12c\L	4c/	.	.	.	.
12GG\	.	.	12G</	.	.	.	.	.
12C\J	.	.	12E</J	.	.	.	.	.
12CC\L	4CC/	.	12c^^\L	4c/	.	.	.	.
12FF\	.	.	12A-X</	.	.	.	.	.
12C\J	.	.	12F</J	.	.	.	.	.
12CC\L	4CC/	.	12c\L	4c/	.	.	.	.
12FF\	.	.	12A-</	.	.	.	.	.
12C\J	.	.	12F</J	.	.	.	.	.
12CC\L	4CC/	.	12c\L	4c/	.	.	.	.
12FF\	.	.	12A-</	.	.	.	.	.
12C\J	.	.	12F</J	.	.	.	.	.
12CC\L	4CC/	.	12c^^\L	4c/	.	.	.	.
12AA-X\	.	.	12F</	.	.	.	.	.
12C\J	.	.	12D</J	.	.	.	.	.
12CC\L	4CC/	.	12c\L	4c/	.	.	.	.
12AA-\	.	.	12F</	.	.	.	.	.
12C\J	.	.	12D</J	.	.	.	.	.
12CC\L	4CC/	.	12c\L	4c/	.	.	.	.
12AA-\	.	.	12F</	.	.	.	.	.
12C\J	.	.	12D</J	.	.	.	.	.
*	*	*	*v	*v	*	*	*	*
=67	=67	=67	=67	=67	=67	=67	=67
4r	[2.CC\	.	[2.c/	.	4%9r	.	.
!	!	!LO:DY:a	!	!	!	!	!
4C/ 4E 4G	.	pp	.	.	.	.	.
4C/ 4E 4G	.	.	.	.	.	.	.
1.C 1.E 1.G	1.CC]	.	1.c]	.	.	.	.
*v	*v	*	*	*	*	*	*
==	==	==	==	==	==	==
*-	*-	*-	*-	*-	*-	*-
!!!system-decoration: s1{(s2,s3)}
!!!RDF**kern: > = above
!!!RDF**kern: < = below
!!!ENC: Marta Opryszak
!!!END: 2022-03-04
!!!AIN: 1 piano 1 vox
!!!ENC: Jan Barakat
!!!END: 2022-03-07
